content/images/home/tuned_slack.svg

<svg width="303" height="96" viewBox="0 0 303 96" fill="none" xmlns="http://www.w3.org/2000/svg">
<rect width="303" height="96" rx="8" fill="#F7EFE8"/>
<path d="M106.157 77.4553C108.921 74.6328 110.474 70.8047 110.474 66.8131V51.7627H95.7368C91.8284 51.7627 88.08 53.3484 85.3163 56.1709C82.5526 58.9934 81 62.8215 81 66.8131C81 70.8047 82.5526 74.6328 85.3163 77.4553C88.08 80.2778 91.8284 81.8635 95.7368 81.8635C99.6453 81.8635 103.394 80.2778 106.157 77.4553Z" fill="white" fill-opacity="0.5"/>
<path d="M122.158 56.1709C119.395 58.9934 117.842 62.8215 117.842 66.8131V96H147.316V66.8131C147.316 62.8215 145.763 58.9934 142.999 56.1709C140.236 53.3484 136.487 51.7627 132.579 51.7627C128.67 51.7627 124.922 53.3484 122.158 56.1709Z" fill="white" fill-opacity="0.5"/>
<path d="M181.623 96H154.684V89.3887H169.421C173.33 89.3887 177.078 90.9743 179.842 93.7968C180.507 94.4768 181.103 95.2151 181.623 96Z" fill="white" fill-opacity="0.5"/>
<path d="M154.684 0H184.158V29.1871C184.158 33.1787 182.605 37.0069 179.842 39.8293C177.078 42.6518 173.33 44.2375 169.421 44.2375C165.513 44.2375 161.764 42.6518 159.001 39.8293C156.237 37.0069 154.684 33.1787 154.684 29.1871V0Z" fill="white" fill-opacity="0.5"/>
<path d="M120.377 0H147.316V6.61153H132.579C128.67 6.61153 124.922 5.02587 122.158 2.20337C121.493 1.52336 120.897 0.784977 120.377 0Z" fill="white" fill-opacity="0.5"/>
<path d="M142.999 18.5449C140.236 15.7224 136.487 14.1367 132.579 14.1367H95.7368C91.8284 14.1367 88.08 15.7224 85.3163 18.5449C82.5526 21.3674 81 25.1955 81 29.1871C81 33.1787 82.5526 37.0069 85.3163 39.8293C88.08 42.6518 91.8284 44.2375 95.7368 44.2375H132.579C136.487 44.2375 140.236 42.6518 142.999 39.8293C145.763 37.0069 147.316 33.1787 147.316 29.1871C147.316 25.1955 145.763 21.3674 142.999 18.5449Z" fill="white" fill-opacity="0.5"/>
<path d="M195.843 18.5449C193.079 21.3674 191.526 25.1955 191.526 29.1871V44.2375H206.263C210.172 44.2375 213.92 42.6518 216.684 39.8293C219.447 37.0069 221 33.1787 221 29.1871C221 25.1955 219.447 21.3674 216.684 18.5449C213.92 15.7224 210.172 14.1367 206.263 14.1367C202.355 14.1367 198.606 15.7224 195.843 18.5449Z" fill="white" fill-opacity="0.5"/>
<path d="M159.001 77.4553C161.764 80.2778 165.513 81.8635 169.421 81.8635H206.263C210.172 81.8635 213.92 80.2778 216.684 77.4553C219.447 74.6328 221 70.8047 221 66.8131C221 62.8215 219.447 58.9934 216.684 56.1709C213.92 53.3484 210.172 51.7627 206.263 51.7627H169.421C165.513 51.7627 161.764 53.3484 159.001 56.1709C156.237 58.9934 154.684 62.8215 154.684 66.8131C154.684 70.8047 156.237 74.6328 159.001 77.4553Z" fill="white" fill-opacity="0.5"/>
<path d="M141.311 53.0976C141.311 55.1525 139.668 56.8311 137.656 56.8311C135.644 56.8311 134 55.1525 134 53.0976C134 51.0428 135.644 49.3642 137.656 49.3642H141.311V53.0976Z" fill="#E01E5A"/>
<path d="M143.153 53.0967C143.153 51.0418 144.797 49.3632 146.809 49.3632C148.821 49.3632 150.465 51.0418 150.465 53.0967V62.4449C150.465 64.4997 148.821 66.1783 146.809 66.1783C144.797 66.1783 143.153 64.4997 143.153 62.4449V53.0967Z" fill="#E01E5A"/>
<path d="M146.809 38.1051C144.797 38.1051 143.153 36.4265 143.153 34.3717C143.153 32.3168 144.797 30.6382 146.809 30.6382C148.821 30.6382 150.465 32.3168 150.465 34.3717V38.1051H146.809Z" fill="#36C5F0"/>
<path d="M146.809 39.9861C148.821 39.9861 150.465 41.6647 150.465 43.7196C150.465 45.7744 148.821 47.453 146.809 47.453H137.656C135.644 47.453 134 45.7744 134 43.7196C134 41.6647 135.644 39.9861 137.656 39.9861H146.809Z" fill="#36C5F0"/>
<path d="M161.489 43.7196C161.489 41.6647 163.132 39.9861 165.144 39.9861C167.156 39.9861 168.8 41.6647 168.8 43.7196C168.8 45.7744 167.156 47.453 165.144 47.453H161.489V43.7196Z" fill="#2EB67D"/>
<path d="M159.647 43.7198C159.647 45.7747 158.003 47.4533 155.991 47.4533C153.979 47.4533 152.335 45.7747 152.335 43.7198V34.3717C152.335 32.3168 153.979 30.6382 155.991 30.6382C158.003 30.6382 159.647 32.3168 159.647 34.3717V43.7198Z" fill="#2EB67D"/>
<path d="M155.991 58.7115C158.003 58.7115 159.647 60.3902 159.647 62.445C159.647 64.4999 158.003 66.1785 155.991 66.1785C153.979 66.1785 152.335 64.4999 152.335 62.445V58.7115H155.991Z" fill="#ECB22E"/>
<path d="M155.991 56.8307C153.979 56.8307 152.335 55.152 152.335 53.0972C152.335 51.0423 153.979 49.3637 155.991 49.3637H165.145C167.157 49.3637 168.8 51.0423 168.8 53.0972C168.8 55.152 167.157 56.8307 165.145 56.8307H155.991Z" fill="#ECB22E"/>
</svg>

<svg xmlns="http://www.w3.org/2000/svg" width="303" height="96" fill="none" viewBox="0 0 303 96"><rect width="303" height="96" fill="#F7EFE8" rx="8"/><path fill="#fff" fill-opacity=".5" d="M106.157 77.455c2.764-2.822 4.317-6.65 4.317-10.642v-15.05H95.737c-3.909 0-7.657 1.585-10.42 4.408C82.552 58.993 81 62.82 81 66.813c0 3.992 1.553 7.82 4.316 10.642 2.764 2.823 6.512 4.409 10.42 4.409 3.91 0 7.658-1.586 10.421-4.409Zm16.001-21.285c-2.763 2.823-4.316 6.651-4.316 10.643V96h29.474V66.813c0-3.992-1.553-7.82-4.317-10.642-2.763-2.823-6.512-4.408-10.42-4.408-3.909 0-7.657 1.585-10.421 4.408ZM181.623 96h-26.939v-6.611h14.737c3.909 0 7.657 1.585 10.421 4.408.665.68 1.261 1.418 1.781 2.203ZM154.684 0h29.474v29.187c0 3.992-1.553 7.82-4.316 10.642-2.764 2.823-6.512 4.408-10.421 4.408-3.908 0-7.657-1.585-10.42-4.408-2.764-2.822-4.317-6.65-4.317-10.642V0Zm-34.307 0h26.939v6.612h-14.737c-3.909 0-7.657-1.586-10.421-4.409A15.002 15.002 0 0 1 120.377 0Zm22.622 18.545c-2.763-2.823-6.512-4.408-10.42-4.408H95.737c-3.909 0-7.657 1.585-10.42 4.408C82.552 21.367 81 25.195 81 29.187c0 3.992 1.553 7.82 4.316 10.642 2.764 2.823 6.512 4.408 10.42 4.408h36.843c3.908 0 7.657-1.585 10.42-4.408 2.764-2.822 4.317-6.65 4.317-10.642 0-3.992-1.553-7.82-4.317-10.642Zm52.844 0c-2.764 2.822-4.317 6.65-4.317 10.642v15.05h14.737c3.909 0 7.657-1.585 10.421-4.408 2.763-2.822 4.316-6.65 4.316-10.642 0-3.992-1.553-7.82-4.316-10.642-2.764-2.823-6.512-4.408-10.421-4.408-3.908 0-7.657 1.585-10.42 4.408Zm-36.842 58.91c2.763 2.823 6.512 4.409 10.42 4.409h36.842c3.909 0 7.657-1.586 10.421-4.409 2.763-2.822 4.316-6.65 4.316-10.642 0-3.992-1.553-7.82-4.316-10.642-2.764-2.823-6.512-4.408-10.421-4.408h-36.842c-3.908 0-7.657 1.585-10.42 4.408-2.764 2.822-4.317 6.65-4.317 10.642 0 3.992 1.553 7.82 4.317 10.642Z"/><path fill="#E01E5A" d="M141.311 53.098c0 2.055-1.643 3.733-3.655 3.733-2.012 0-3.656-1.678-3.656-3.733s1.644-3.734 3.656-3.734h3.655v3.734Zm1.842-.001c0-2.055 1.644-3.734 3.656-3.734 2.012 0 3.656 1.679 3.656 3.734v9.348c0 2.055-1.644 3.733-3.656 3.733-2.012 0-3.656-1.678-3.656-3.733v-9.348Z"/><path fill="#36C5F0" d="M146.809 38.105c-2.012 0-3.656-1.678-3.656-3.733s1.644-3.734 3.656-3.734c2.012 0 3.656 1.679 3.656 3.734v3.733h-3.656Zm0 1.881c2.012 0 3.656 1.679 3.656 3.734 0 2.054-1.644 3.733-3.656 3.733h-9.153c-2.012 0-3.656-1.679-3.656-3.733 0-2.055 1.644-3.734 3.656-3.734h9.153Z"/><path fill="#2EB67D" d="M161.489 43.72c0-2.055 1.643-3.734 3.655-3.734 2.012 0 3.656 1.679 3.656 3.734 0 2.054-1.644 3.733-3.656 3.733h-3.655V43.72Zm-1.842 0c0 2.055-1.644 3.733-3.656 3.733-2.012 0-3.656-1.678-3.656-3.733v-9.348c0-2.055 1.644-3.734 3.656-3.734 2.012 0 3.656 1.679 3.656 3.734v9.348Z"/><path fill="#ECB22E" d="M155.991 58.712c2.012 0 3.656 1.678 3.656 3.733s-1.644 3.733-3.656 3.733c-2.012 0-3.656-1.678-3.656-3.733v-3.733h3.656Zm0-1.882c-2.012 0-3.656-1.678-3.656-3.733s1.644-3.733 3.656-3.733h9.154c2.012 0 3.655 1.678 3.655 3.733s-1.643 3.734-3.655 3.734h-9.154Z"/></svg>
